src/assets/haze.svg

<svg xmlns="http://www.w3.org/2000/svg" width="35" height="34" viewBox="0 0 35 34" fill="none">
<path d="M4.90972 6.2239L4.53056 5.85557C4.15139 5.48723 3.53889 5.49668 3.16945 5.85557L3.15972 5.86501C2.78056 6.23334 2.78056 6.82834 3.15972 7.18723L3.53889 7.55557C3.91806 7.9239 4.52083 7.9239 4.9 7.55557L4.90972 7.54612C5.28889 7.18723 5.28889 6.58279 4.90972 6.2239Z" fill="white"/>
<path d="M1.95417 12.2306H0.9625C0.427778 12.2306 0 12.6461 0 13.1656V13.175C0 13.6945 0.427778 14.11 0.9625 14.11H1.94444C2.48889 14.1195 2.91667 13.7039 2.91667 13.1845V13.175C2.91667 12.6461 2.48889 12.2306 1.95417 12.2306Z" fill="white"/>
<path d="M10.7042 2.83334H10.6944C10.15 2.83334 9.72222 3.2489 9.72222 3.76834V4.67501C9.72222 5.19445 10.15 5.61001 10.6847 5.61001H10.6944C11.2389 5.61945 11.6667 5.2039 11.6667 4.68445V3.76834C11.6667 3.2489 11.2389 2.83334 10.7042 2.83334Z" fill="white"/>
<path d="M18.2292 5.86501C17.85 5.49668 17.2375 5.49668 16.8583 5.85557L16.4792 6.2239C16.1 6.59223 16.1 7.18723 16.4792 7.54612L16.4889 7.55557C16.8681 7.9239 17.4806 7.9239 17.85 7.55557L18.2292 7.18723C18.6083 6.8189 18.6083 6.23334 18.2292 5.86501Z" fill="white"/>
<path d="M10.6944 7.50834C7.47639 7.50834 4.86111 10.0489 4.86111 13.175C4.86111 15.2014 5.95996 16.9817 7.60955 17.9835C8.39888 15.7622 10.5701 14.1667 13.125 14.1667C13.2255 14.1667 13.3255 14.1691 13.4248 14.174C13.8459 12.7221 14.6894 11.442 15.8182 10.467C14.8282 8.70531 12.9033 7.50834 10.6944 7.50834Z" fill="white"/>
<path d="M3.15972 20.485C3.53889 20.8533 4.15139 20.8533 4.53056 20.485L4.90972 20.1167C5.28889 19.7483 5.27917 19.1533 4.90972 18.7945L4.9 18.785C4.52083 18.4167 3.90833 18.4167 3.52917 18.785L3.15 19.1533C2.78056 19.5311 2.78056 20.1167 3.15972 20.485Z" fill="white"/>
<path d="M10.2083 29.75H29.1667C32.3883 29.75 35 27.213 35 24.0833C35 21.4255 33.1163 19.195 30.575 18.5829C30.608 18.2958 30.625 18.004 30.625 17.7083C30.625 13.4051 27.034 9.91668 22.6042 9.91668C18.93 9.91668 15.8328 12.3166 14.8831 15.5907C14.7838 15.5858 14.6839 15.5833 14.5833 15.5833C11.3617 15.5833 8.75 18.1204 8.75 21.25C8.75 21.3304 8.75173 21.4105 8.75514 21.4901C7.05322 22.0721 5.83333 23.6477 5.83333 25.5C5.83333 27.8472 7.79209 29.75 10.2083 29.75Z" fill="white"/>
</svg>

<svg xmlns="http://www.w3.org/2000/svg" width="35" height="34" fill="none"><path fill="#fff" d="m4.91 6.224-.38-.368a.986.986 0 0 0-1.36 0l-.01.009a.91.91 0 0 0 0 1.322l.379.369a.976.976 0 0 0 1.361 0l.01-.01a.91.91 0 0 0 0-1.322M1.954 12.23H.963a.945.945 0 0 0-.963.936v.009c0 .52.428.935.963.935h.981c.545.01.973-.406.973-.925v-.01a.947.947 0 0 0-.963-.944M10.704 2.833h-.01c-.544 0-.972.416-.972.935v.907c0 .52.428.935.963.935h.01c.544.01.972-.406.972-.926v-.916a.945.945 0 0 0-.963-.935M18.23 5.865a1 1 0 0 0-1.372-.01l-.379.369a.91.91 0 0 0 0 1.322l.01.01a.976.976 0 0 0 1.361 0l.38-.369a.91.91 0 0 0 0-1.322M10.694 7.508c-3.218 0-5.833 2.54-5.833 5.667 0 2.026 1.099 3.807 2.749 4.808.789-2.22 2.96-3.816 5.515-3.816q.15 0 .3.007a7.77 7.77 0 0 1 2.393-3.707c-.99-1.762-2.915-2.959-5.124-2.959M3.16 20.485a.99.99 0 0 0 1.37 0l.38-.368a.92.92 0 0 0 0-1.323l-.01-.009a.99.99 0 0 0-1.37 0l-.38.368a.93.93 0 0 0 .01 1.332M10.208 29.75h18.959c3.221 0 5.833-2.537 5.833-5.667 0-2.657-1.884-4.888-4.425-5.5q.05-.43.05-.875c0-4.303-3.591-7.791-8.02-7.791-3.675 0-6.772 2.4-7.722 5.674a6 6 0 0 0-.3-.008c-3.221 0-5.833 2.537-5.833 5.667q0 .12.005.24c-1.702.582-2.922 2.158-2.922 4.01 0 2.347 1.96 4.25 4.375 4.25"/></svg>
